X:1
T:Title
%%score { ( 1 3 ) | ( 2 4 ) }
L:1/8
Q:1/4=126
M:6/4
K:Db
V:1 treble nm="Grand Piano"
V:3 treble 
V:2 bass 
V:4 bass 
V:1
 F2 _F2 =F2 A4 A2 | z6 _G6 | G2 F2 G2 c4 c2 | [FB]4 [_FB]2 [=FA]6 | [Gd]2 [Fd]2 [Fd]2 c4 F2 | %5
w: C.~Austin~Miles * * * *|||||
 .B6 z6 | [Fd]2 [Fc]2 [FB]2 [Ae]4 [EAc]2 | [E=Gc]4 [DGB]2 [CA]6 | [DFA]2 [B,FB]2 [Fd]2 .[Gc]4 G2 | %9
w: ||||
 G4 F2 G6 | G2 A2 c2 .[FB]4 F2 | F4 _F2 =F6 | F2 _F2 =F2 .[CA]4 [CE]2 | [CE]4 [DF]2 G4 F2 | %14
w: |||||
 G4 A2 [Ac]4 [GB]2 | [GB]4 [_F=G]2 [=FA]6 | [FA]2 [FB]2 [Fd]2 .[Gc]4 G2 | G4 F2 G6 | %18
w: ||||
 G2 A2 c2 .[FB]4 F2 | F4 _F2 =F6 | F2 G2 A2 B4 d2 |[M:7/4] d4 E2 E6 B2 | %22
w: ||||
[M:13/8] z z z z z2 e-e- e3 z2 |[M:6/4] d12 |] %24
w: ||
V:2
 [D,A,D]2 [D,=G,D]2 [D,A,D]2 [F,A,D]4 [F,A,D]2 | [_F,=A,D]4 [F,A,D]2 .[E,_A,C]6 | %2
 [A,CE]2 [A,_C=D]2 [A,=CE]2 [A,EG]4 [A,EG]2 | [D,D]4 [D,=G,]2 [D,A,]6 | %4
 [B,,B,]2 [B,,B,]2 [B,,B,]2 [F,=A,E]4 [F,CE]2 | .[G,B,D]4 G,2 z4 A,2 | %6
 [B,,B,]2 [C,=A,]2 [D,B,]2 [E,C]4 E,2 | D,4 E,2 A,6 | D,2 D,2 [D,A,]2 .[E,A,]4[K:treble] [A,CE]2 | %9
 [A,CE]4 [A,_C=D]2 [A,=CE]6 | [A,CE]2 [A,CG]2 [A,EG]2[K:bass] .[D,D]4 [D,A,D]2 | %11
 [D,A,D]4 [D,=G,D]2 [D,A,D]6 | [D,A,D]2 [D,A,D]2 [D,A,D]2 .[A,,A,]4 [A,,A,]2 | %13
 [A,,A,]4 [A,,A,]2[K:treble] [A,CE]4 [A,_C=D]2 | [A,CE]4 [A,F]2[K:bass] [A,,A,]4 [B,,A,]2 | %15
 [C,A,]4 [C,B,]2 [D,A,]6 | [D,D]2 [D,B,]2 [D,A,]2 .[E,A,]4[K:treble] [A,CE]2 | %17
 [A,CE]4 [A,_C=D]2 [A,=CE]6 | [A,CE]2 [A,CG]2 [A,EG]2[K:bass] .[D,D]4 [D,A,D]2 | %19
 [D,A,D]4 [D,=G,D]2 [D,A,D]6 | [D,A,D]2 [E,A,C]2 [F,A,D]2 [G,B,D]4 [G,B,D]2 | %21
[M:7/4] [G,B,D]4 [G,B,D]2[K:treble] [=G,B,D]6 [G,D_F]2 | %22
[M:13/8] [A,DF]2 [B,D_F]2 [A,D=F]2[K:bass] [E,D]2 A,3 A,2 |[M:6/4] z2 C2 B,2 A,6 |] %24
V:3
 x12 | =G4 G2 z2 A,4 | x12 | x12 | x12 | z2 E2 [DGB]2 [DFA]4 [DF]2 | x12 | x12 | x12 | x12 | x12 | %11
 x12 | x12 | x12 | x12 | x12 | x12 | x12 | x12 | x12 | x12 |[M:7/4] x14 | %22
[M:13/8] A2 =G2 A2 G2 [C_G]3 [EGA]2 |[M:6/4] [DF]2 A2 G2 F6 |] %24
V:4
 x12 | x12 | x12 | x12 | x12 | z6 D,6 | x12 | x12 | x10[K:treble] x2 | x12 | x6[K:bass] x6 | x12 | %12
 x12 | x6[K:treble] x6 | x6[K:bass] x6 | x12 | x10[K:treble] x2 | x12 | x6[K:bass] x6 | x12 | x12 | %21
[M:7/4] x6[K:treble] x8 |[M:13/8] x6[K:bass] x7 |[M:6/4] D,12 |] %24

